packages/crayons-core/src/components/icon/icon-assets/icons/rewards.svg

<?xml version="1.0" encoding="UTF-8"?>
<svg width="16px" height="16px" viewBox="0 0 16 16" version="1.1" xmlns="http://www.w3.org/2000/svg" xmlns:xlink="http://www.w3.org/1999/xlink">
    <!-- Generator: Sketch 52.6 (67491) - http://www.bohemiancoding.com/sketch -->
    <title>icon/rewards</title>
    <desc>Created with Sketch.</desc>
    <g id="Icons-✅" stroke="none" stroke-width="1" fill="none" fill-rule="evenodd">
        <g id="Icons" transform="translate(-818.000000, -1200.000000)" fill="currentColor">
            <g id="icon/rewards" transform="translate(818.000000, 1200.000000)">
                <g id="rewards">
                    <path d="M14.57,3.11 C15.3597672,3.11 16,3.75023281 16,4.54 L16,6.3 C15.9921722,7.95300641 14.7002903,9.3149564 13.05,9.41 C12.2399195,11.146429 10.5996241,12.3493123 8.7,12.6 L8.7,14.6 L10.43,14.6 C10.8165993,14.6 11.13,14.9134007 11.13,15.3 C11.13,15.6865993 10.8165993,16 10.43,16 L5.57,16 C5.18340069,16 4.87000004,15.6865993 4.87000004,15.3 C4.87000004,14.9134007 5.18340069,14.6 5.57,14.6 L7.3,14.6 L7.3,12.6 C5.41898495,12.3333565 3.8007252,11.1328336 3,9.41 C1.33003423,9.34060608 0.00923873747,7.97138142 0,6.3 L0,4.54 C9.67185864e-17,3.75023281 0.640232808,3.11 1.43,3.11 L2.43,3.11 L2.43,1.4 C2.43,0.62680135 3.05680135,-1.8237016e-15 3.83,-1.77635684e-15 L12.17,-1.77635684e-15 C12.9431986,-1.72901208e-15 13.57,0.62680135 13.57,1.4 L13.57,3.11 L14.57,3.11 Z M1.4,6.3 C1.39692316,7.00165807 1.82036538,7.63484272 2.47,7.9 C2.42640526,7.62877572 2.40300762,7.35468904 2.4,7.08 L2.4,4.51 L1.4,4.51 L1.4,6.3 Z M8,11.24 C10.2991278,11.2400066 12.1644865,9.3791212 12.17,7.08 L12.17,1.4 L3.83,1.4 L3.83,7.08 C3.8355135,9.3791212 5.70087219,11.2400066 8,11.24 Z M14.6,6.3 L14.57,4.52 L13.57,4.52 L13.57,7.08 C13.5665367,7.35135003 13.5431404,7.62207886 13.5,7.89 C14.1510129,7.62688237 14.5833377,7.00197655 14.6,6.3 Z M9.48,4.94 C9.75821285,4.98098403 9.98371757,5.18670763 10.05,5.46 C10.1301948,5.71475234 10.0606436,5.99295724 9.87,6.18 L9.44,6.6 L9.54,7.18 C9.58908347,7.44268222 9.4843276,7.71039168 9.27,7.87 C9.04220562,8.00645752 8.75779438,8.00645752 8.53,7.87 L8,7.59 L7.52,7.82 C7.29160982,7.95428625 7.00839018,7.95428625 6.78,7.82 C6.5656724,7.66039168 6.46091653,7.39268222 6.51,7.13 L6.61,6.55 L6.18,6.13 C5.98935644,5.94295724 5.91980522,5.66475234 6,5.41 C6.07492861,5.17040388 6.27407378,4.99040728 6.52,4.94 L7.11,4.85 L7.37,4.32 C7.50096385,4.09627088 7.74075832,3.95878178 8,3.95878178 C8.25924168,3.95878178 8.49903615,4.09627088 8.63,4.32 L8.89,4.85 L9.48,4.94 Z" id="Combined-Shape"></path>
                </g>
            </g>
        </g>
    </g>
</svg>

<svg viewBox="0 0 16 16"><path d="M14.57 3.11c.79 0 1.43.64 1.43 1.43V6.3a3.13 3.13 0 0 1-2.95 3.11A5.61 5.61 0 0 1 8.7 12.6v2h1.73a.7.7 0 0 1 0 1.4H5.57a.7.7 0 0 1 0-1.4H7.3v-2A5.61 5.61 0 0 1 3 9.41 3.13 3.13 0 0 1 0 6.3V4.54c0-.79.64-1.43 1.43-1.43h1V1.4A1.4 1.4 0 0 1 3.83 0h8.34a1.4 1.4 0 0 1 1.4 1.4v1.71h1zM1.4 6.3a1.72 1.72 0 0 0 1.07 1.6 5.55 5.55 0 0 1-.07-.82V4.51h-1V6.3zM8 11.24a4.17 4.17 0 0 0 4.17-4.16V1.4H3.83v5.68A4.17 4.17 0 0 0 8 11.24zm6.6-4.94l-.03-1.78h-1v2.56a5.54 5.54 0 0 1-.07.81 1.76 1.76 0 0 0 1.1-1.59zM9.48 4.94a.69.69 0 0 1 .57.52.71.71 0 0 1-.18.72l-.43.42.1.58a.7.7 0 0 1-.27.69.72.72 0 0 1-.74 0L8 7.59l-.48.23a.73.73 0 0 1-.74 0 .7.7 0 0 1-.27-.69l.1-.58-.43-.42A.71.71 0 0 1 6 5.41a.69.69 0 0 1 .52-.47l.59-.09.26-.53a.73.73 0 0 1 1.26 0l.26.53.59.09z" fill="currentColor" fill-rule="evenodd"/></svg>
